frontend/public/svg/hand gestures/zoom-in.svg

<svg width="134" height="147" viewBox="0 0 134 147" fill="none" xmlns="http://www.w3.org/2000/svg">
<g clip-path="url(#clip0)">
<path d="M53.3125 18.45C52.9712 20.7898 52.8026 23.1881 52.6399 25.5076C52.5618 26.6141 52.4845 27.7207 52.388 28.824C51.2027 42.4509 51.7971 56.2931 52.3713 69.6792L52.3944 70.2292C52.4469 71.4467 52.4338 72.6812 52.4194 73.988C52.4155 74.4054 52.4108 74.8321 52.4082 75.2705L52.1819 75.0788C51.7225 74.6896 51.3284 74.3536 50.9064 74.051C44.1776 69.2033 37.0388 67.5172 29.6905 69.0373C28.118 69.3287 26.6433 70.0093 25.4006 71.0155C24.1578 72.0223 23.1862 73.3238 22.5743 74.8012C21.9593 76.3462 21.7402 78.0206 21.9366 79.6726C22.1329 81.3239 22.7387 82.9004 23.6988 84.2584C24.8854 85.8671 26.2631 87.3261 27.8016 88.6027L28.1448 88.9125C32.9312 93.1039 36.9239 98.1229 39.932 103.729C44.1765 111.858 48.9179 120.423 54.4265 129.914C55.8003 132.281 57.9899 134.2 59.7429 135.606C63.7659 138.728 68.2522 141.202 73.0389 142.938C77.7829 144.775 82.8262 145.718 87.9135 145.717C93.8205 145.646 99.6692 144.537 105.193 142.442C109.119 140.953 112.757 138.794 115.944 136.059C121.937 131.097 126.108 124.294 128.692 115.262C132.062 103.557 133.5 91.3803 132.949 79.2125C132.745 75.5921 131.939 72.0308 130.566 68.6743C129.942 67.0952 128.975 65.6754 127.733 64.5174C126.492 63.3593 125.008 62.4925 123.389 61.9796C121.688 61.4567 119.892 61.3193 118.131 61.5773C116.37 61.8354 114.688 62.4824 113.208 63.4715C112.867 63.6953 112.532 63.9309 112.182 64.1737L111.999 64.3004C111.095 62.3015 109.737 60.5409 108.034 59.1586C106.33 57.7762 104.327 56.8101 102.185 56.3371C100.341 55.9689 98.4359 56.0552 96.6336 56.5888C94.8306 57.1224 93.1859 58.0872 91.8397 59.3995C86.9264 52.8979 83.2476 52.2454 75.9176 56.6121L75.8933 56.4014C75.85 56.0253 75.8172 55.745 75.7988 55.4654C75.6406 53.1053 75.4923 50.7446 75.3531 48.3836C75.0315 43.1066 74.6968 37.6505 74.2065 32.2974C73.6867 26.6529 72.8282 20.1617 69.1724 14.5172C67.4659 11.88 64.9678 10.3166 62.3208 10.2313C59.6397 10.1302 57.1259 11.4987 55.2271 14.0472C54.2458 15.3405 53.5892 16.8503 53.3125 18.45ZM58.0252 59.1173C57.9805 57.1883 57.9102 55.2587 57.8386 53.3291C57.6975 49.4915 57.5526 45.5232 57.6287 41.6292C57.7462 35.6434 58.1472 29.5591 58.5351 23.6757L58.7011 21.1423C58.8579 18.7296 59.471 16.1633 62.8045 15.3514C64.9809 17.0336 66.2904 19.3997 66.805 22.5783C67.6773 27.9695 68.2594 32.8684 68.585 37.556C69.0064 43.6343 69.3293 49.8236 69.641 55.8087C69.8314 59.4684 70.023 63.1275 70.2363 66.786C70.3676 69.0569 71.383 70.3893 73.0934 70.5377C75.3604 70.7411 76.2208 68.9703 76.8411 67.6806C77.1036 67.1385 77.353 66.5878 77.605 66.0358C78.3421 64.2503 79.2662 62.548 80.3617 60.957C81.4459 59.5085 82.7973 58.7996 84.0746 59.0097C85.3958 59.2289 86.4892 60.3932 87.0773 62.2047C87.4488 63.5641 87.6536 64.9636 87.687 66.3725C87.71 66.7237 87.733 67.0742 87.7606 67.4227C87.7908 68.0107 87.7757 68.6008 87.7153 69.1869C87.6844 69.5984 87.6496 70.0093 87.6496 70.4195C87.6122 70.77 87.6464 71.1251 87.7494 71.4624C87.8531 71.7998 88.0238 72.1129 88.2515 72.382C88.4793 72.6517 88.7589 72.8722 89.0745 73.0304C89.3896 73.1886 89.7342 73.2818 90.086 73.3035C90.4299 73.3763 90.785 73.3802 91.1302 73.314C91.4761 73.2483 91.8049 73.1138 92.0976 72.9188C92.3904 72.7239 92.6404 72.4725 92.8347 72.1791C93.029 71.8864 93.1622 71.5569 93.2279 71.2117C93.2935 70.963 93.3591 70.7122 93.4248 70.4622C93.5252 70.0684 93.6217 69.6706 93.7464 69.2808C93.8711 68.8909 93.9754 68.5155 94.0863 68.1302C94.3495 67.124 94.6862 66.1382 95.0945 65.1812L95.1897 64.9731C96.1433 62.886 97.0333 60.9078 99.6987 61.0666C101.895 61.1926 104.764 62.0282 105.953 65.2934C106.498 67.0387 106.828 68.8436 106.937 70.6689L107.018 71.4454C107.055 71.7945 107.067 72.1516 107.08 72.5073C107.135 74.0458 107.197 75.789 109.349 76.5418C111.234 77.1982 112.247 76.148 113.946 73.3737C114.857 71.7355 115.971 70.2187 117.26 68.8581C117.718 68.358 118.287 67.9707 118.92 67.7259C119.552 67.4804 120.233 67.3846 120.909 67.445C121.586 67.5789 122.223 67.867 122.771 68.2858C123.32 68.7045 123.765 69.244 124.072 69.8616C126.309 73.5922 127.392 77.9018 127.184 82.2467C126.719 89.6371 125.883 96.9093 124.918 104.968C124.175 111.168 121.699 116.717 119.375 121.334C115.866 128.298 109.913 133.04 101.174 135.831C88.4911 139.881 76.0364 137.699 64.1613 129.34C62.8903 128.49 61.7807 127.419 60.8848 126.18C58.852 123.238 56.9735 120.194 55.2572 117.057C52.7441 112.397 50.2424 107.452 47.8206 102.365C43.5544 93.4012 38.2475 86.5477 31.6015 81.4119C31.5255 81.3554 31.4541 81.2937 31.3878 81.2261C31.1804 81.0069 30.9625 80.791 30.7452 80.5744C29.4752 79.3122 28.2746 78.1197 28.9316 76.1388C29.6359 74.0136 31.6449 73.6658 33.5955 73.6658C33.7005 73.6658 33.8055 73.6658 33.9099 73.6658C41.064 73.7885 46.4026 76.448 49.7709 81.5694C50.4017 82.6674 50.8663 83.8528 51.1493 85.0873C51.2517 85.447 51.3541 85.8054 51.4637 86.1565C51.908 87.5873 52.6339 89.0739 54.6509 89.2492C56.2642 89.3923 57.6824 88.1544 58.2226 86.0988C58.4484 85.2009 58.5515 84.2768 58.5287 83.3513C58.4 76.1054 58.2339 68.1775 58.0252 59.1173Z" fill="black"/>
<path d="M3.47341 66.6061C4.34323 66.5536 5.16722 66.1972 5.8004 65.5986C6.50733 65.0222 7.17798 64.4029 7.80914 63.7444C10.6095 60.7406 13.4059 57.7326 16.198 54.7204C18.37 52.3813 20.543 50.0427 22.7168 47.7048C23.0351 47.3635 23.3802 47.0485 23.8179 46.6442C23.9256 46.5458 24.0385 46.4419 24.1567 46.3324L25.562 52.6733C26.2249 55.6708 27.4129 56.8083 29.5257 56.4729C29.9098 56.4305 30.2801 56.3063 30.6121 56.1085C30.9441 55.9106 31.2298 55.6439 31.4498 55.3262C32.0405 54.4441 32.1274 53.1354 31.7126 51.4361C30.7681 47.5421 29.6029 43.5154 28.2495 39.4678C27.3307 36.7296 26.0307 36.0614 22.8796 36.721L21.1561 37.084C19.1405 37.5099 17.0564 37.951 14.9981 38.3258C13.9479 38.5174 12.8689 38.6789 11.826 38.8358C10.4707 39.0392 9.06964 39.2492 7.70118 39.5282C7.33389 39.6446 7.00488 39.8579 6.74869 40.1457C6.49249 40.4334 6.31844 40.7849 6.24521 41.1631C6.3056 41.5408 6.46492 41.8959 6.70703 42.192C6.94912 42.4882 7.26542 42.715 7.6236 42.8493C8.63278 43.1231 9.68194 43.22 10.7242 43.1354C12.6131 43.0206 14.462 42.8545 16.6037 42.6622C17.2679 42.6025 17.955 42.5408 18.6704 42.4778C18.5004 42.7186 18.3388 42.9484 18.1839 43.1696C17.716 43.868 17.21 44.5402 16.6685 45.1832C12.9372 49.4336 9.11736 53.7333 5.42416 57.8912L3.27343 60.3131C3.08178 60.529 2.87957 60.7345 2.67413 60.9399C2.407 61.2097 2.12942 61.4893 1.87935 61.7931C0.258853 63.7556 0.894906 65.0873 1.7127 65.8585C2.17887 66.3291 2.81107 66.5976 3.47341 66.6061Z" fill="black"/>
<path d="M29.3229 31.5045C32.3377 32.4003 35.4086 33.0944 38.5155 33.5825C38.9172 33.6481 39.3235 33.6817 39.7305 33.6829C40.6963 33.692 41.6492 33.4606 42.5032 33.0095C43.3573 32.5584 44.0859 31.9018 44.6229 31.0989L44.7712 30.8968L44.6203 30.6999C43.1258 28.7203 41.0222 28.5339 38.9895 28.3482C37.48 28.2123 36.0432 28.0857 34.8742 27.2521L35.0284 27.0854C35.2988 26.7914 35.5534 26.5164 35.8107 26.246L40.5182 21.3306C44.4562 17.2202 48.3907 13.1061 52.3217 8.98821C53.1244 8.17888 53.8541 7.30037 54.5025 6.36285C55.7673 4.44634 55.8155 2.49046 54.6157 1.60834C52.7556 0.239225 51.056 1.5998 50.2389 2.25417C49.2851 3.06356 48.401 3.95165 47.5959 4.90907L47.153 5.40524C43.5937 9.36494 40.0434 13.3325 36.2911 17.5258L32.5745 21.6805C32.5902 21.5623 32.6046 21.4507 32.6191 21.3438C32.7149 20.6402 32.7772 20.1748 32.812 19.6937L32.8953 18.5451C33.0358 16.6149 33.1809 14.6183 33.2491 12.6493C33.2881 12.2814 33.251 11.9096 33.1399 11.5568C33.0287 11.204 32.8461 10.8779 32.6034 10.5989C32.4225 10.4455 32.2091 10.3354 31.9794 10.277C31.7497 10.2185 31.5096 10.2132 31.2776 10.2615C30.4841 10.3816 29.7909 11.6995 29.6255 12.4044C28.6502 16.5578 27.7471 20.7997 26.8742 24.9018L26.5348 26.4921C25.9244 29.3511 26.6799 30.711 29.3229 31.5045Z" fill="black"/>
</g>
<defs>
<clipPath id="clip0">
<rect width="132.58" height="145.707" fill="white" transform="translate(0.747192 0.447266)"/>
</clipPath>
</defs>
</svg>

<svg xmlns="http://www.w3.org/2000/svg" width="134" height="147" fill="none" viewBox="0 0 134 147"><g fill="#000" clip-path="url(#a)"><path d="M53.313 18.45c-.342 2.34-.51 4.738-.673 7.058-.078 1.106-.156 2.213-.252 3.316-1.185 13.627-.59 27.47-.017 40.855l.023.55c.053 1.218.04 2.452.025 3.759q-.006.625-.01 1.282l-.227-.191c-.46-.39-.854-.725-1.276-1.028-6.728-4.848-13.867-6.534-21.215-5.014a9.6 9.6 0 0 0-7.117 5.764 9.98 9.98 0 0 0 1.125 9.457 24.7 24.7 0 0 0 4.103 4.345l.343.31a53 53 0 0 1 11.787 14.816c4.244 8.129 8.986 16.694 14.494 26.185 1.374 2.367 3.564 4.286 5.317 5.692a48.9 48.9 0 0 0 13.296 7.332 41.2 41.2 0 0 0 14.874 2.779 50.4 50.4 0 0 0 17.28-3.275 36.2 36.2 0 0 0 10.751-6.383c5.993-4.962 10.164-11.765 12.748-20.797a112 112 0 0 0 4.257-36.05 32.7 32.7 0 0 0-2.383-10.538 11.42 11.42 0 0 0-7.177-6.694 11.98 11.98 0 0 0-10.181 1.492c-.341.223-.676.459-1.026.702l-.183.126a14.11 14.11 0 0 0-9.814-7.963A11.57 11.57 0 0 0 91.84 59.4c-4.914-6.502-8.592-7.155-15.922-2.788l-.025-.21c-.043-.377-.076-.657-.094-.937q-.237-3.54-.446-7.081c-.322-5.277-.656-10.733-1.146-16.087-.52-5.644-1.379-12.135-5.035-17.78-1.706-2.637-4.204-4.2-6.851-4.286-2.681-.1-5.195 1.268-7.094 3.816a10.14 10.14 0 0 0-1.914 4.403m4.712 40.667a416 416 0 0 0-.186-5.788c-.142-3.837-.286-7.806-.21-11.7.117-5.986.518-12.07.906-17.953l.166-2.534c.157-2.412.77-4.979 4.103-5.79 2.177 1.682 3.486 4.048 4.001 7.226.872 5.392 1.454 10.29 1.78 14.978.421 6.078.744 12.268 1.056 18.253.19 3.66.382 7.319.595 10.977.132 2.27 1.147 3.603 2.857 3.752 2.267.203 3.128-1.568 3.748-2.857.263-.543.512-1.093.764-1.645a27.4 27.4 0 0 1 2.757-5.079c1.084-1.449 2.435-2.157 3.713-1.947 1.32.219 2.414 1.383 3.002 3.195.372 1.36.577 2.759.61 4.168q.033.526.074 1.05.045.883-.046 1.764c-.03.411-.065.822-.065 1.233a2.62 2.62 0 0 0 .601 1.962 2.6 2.6 0 0 0 1.835.921 2.64 2.64 0 0 0 3.142-2.091l.197-.75c.1-.394.197-.791.321-1.181.125-.39.23-.766.34-1.15a21 21 0 0 1 1.008-2.95l.096-.208c.953-2.087 1.843-4.065 4.509-3.906 2.196.126 5.065.961 6.254 4.226a22.5 22.5 0 0 1 .984 5.376l.081.776c.037.35.049.707.062 1.062.055 1.539.117 3.282 2.269 4.035 1.885.656 2.898-.394 4.597-3.168a22.4 22.4 0 0 1 3.314-4.516 4.4 4.4 0 0 1 1.66-1.132 4.4 4.4 0 0 1 1.989-.281 4.5 4.5 0 0 1 3.163 2.417 22.04 22.04 0 0 1 3.112 12.385c-.465 7.39-1.301 14.662-2.266 22.721-.743 6.2-3.219 11.749-5.543 16.366-3.509 6.964-9.462 11.706-18.201 14.497-12.683 4.05-25.138 1.868-37.013-6.491a12.9 12.9 0 0 1-3.276-3.16 103 103 0 0 1-5.628-9.123 330 330 0 0 1-7.436-14.692c-4.267-8.964-9.573-15.817-16.22-20.953a2 2 0 0 1-.213-.186c-.208-.22-.426-.435-.643-.652-1.27-1.262-2.47-2.454-1.813-4.435.704-2.125 2.713-2.473 4.664-2.473h.314c7.154.123 12.493 2.782 15.86 7.903a12.8 12.8 0 0 1 1.38 3.518q.151.541.314 1.07c.444 1.43 1.17 2.917 3.187 3.092 1.613.143 3.031-1.095 3.572-3.15.225-.898.328-1.822.306-2.748-.129-7.246-.295-15.174-.504-24.234M3.473 66.606A3.7 3.7 0 0 0 5.8 65.6a22 22 0 0 0 2.01-1.855q4.2-4.504 8.388-9.024 3.258-3.508 6.519-7.015c.318-.341.663-.657 1.1-1.06l.34-.313 1.405 6.341c.663 2.998 1.85 4.135 3.964 3.8a2.7 2.7 0 0 0 1.924-1.147c.59-.882.677-2.19.263-3.89a148 148 0 0 0-3.463-11.968c-.92-2.738-2.22-3.407-5.37-2.747l-1.724.363c-2.015.426-4.1.867-6.158 1.242-1.05.191-2.13.353-3.172.51-1.355.203-2.756.413-4.125.692a2.14 2.14 0 0 0-1.456 1.635 2.17 2.17 0 0 0 1.379 1.686 9 9 0 0 0 3.1.286c1.89-.114 3.738-.28 5.88-.473l2.066-.184-.486.692q-.703 1.048-1.515 2.013c-3.732 4.25-7.552 8.55-11.245 12.708l-2.15 2.422c-.192.216-.394.421-.6.627-.267.27-.545.55-.795.853-1.62 1.963-.984 3.294-.166 4.066.466.47 1.098.739 1.76.747m25.85-35.102a71 71 0 0 0 9.193 2.078q.603.098 1.215.1a5.82 5.82 0 0 0 4.892-2.584l.148-.202-.15-.197c-1.495-1.98-3.599-2.166-5.632-2.352-1.509-.136-2.946-.262-4.115-1.096l.154-.167c.27-.294.525-.569.783-.839l4.707-4.915q5.907-6.166 11.804-12.343a19.4 19.4 0 0 0 2.18-2.625c1.265-1.917 1.313-3.873.114-4.755-1.86-1.369-3.56-.008-4.377.646a22.3 22.3 0 0 0-2.643 2.655l-.443.496c-3.56 3.96-7.11 7.927-10.862 12.12l-3.716 4.156.044-.337a26 26 0 0 0 .193-1.65l.083-1.149c.14-1.93.286-3.927.354-5.896a2.7 2.7 0 0 0-.646-2.05 1.56 1.56 0 0 0-1.325-.338c-.794.12-1.487 1.439-1.652 2.143-.976 4.154-1.879 8.396-2.752 12.498l-.34 1.59c-.61 2.86.146 4.219 2.789 5.012"/></g><defs><clipPath id="a"><path fill="#fff" d="M.747.447h132.58v145.707H.747z"/></clipPath></defs></svg>
